X:1
T:Abraham
C:Traditioneel
O:Hoogstraten (Vlaanderen)
Z:Bert Van Vreckem <http://flanders.blackmill.net/music/>
M:2/4
L:1/8
K:G
D/D/|GG GA|B2 BB/B/|AA AB|G2z2||
BB BA/B/|cA AA/B/|cB ce|d2 zc|
